img/projects/nft.svg

<?xml version="1.0" encoding="UTF-8" standalone="no"?>
<svg
   width="31"
   height="37"
   viewBox="0 0 31 37"
   fill="none"
   version="1.1"
   id="svg6"
   sodipodi:docname="nft.svg"
   inkscape:version="1.2.1 (9c6d41e410, 2022-07-14)"
   xmlns:inkscape="http://www.inkscape.org/namespaces/inkscape"
   xmlns:sodipodi="http://sodipodi.sourceforge.net/DTD/sodipodi-0.dtd"
   xmlns="http://www.w3.org/2000/svg"
   xmlns:svg="http://www.w3.org/2000/svg">
  <defs
     id="defs10" />
  <sodipodi:namedview
     id="namedview8"
     pagecolor="#ffffff"
     bordercolor="#000000"
     borderopacity="0.25"
     inkscape:showpageshadow="2"
     inkscape:pageopacity="0.0"
     inkscape:pagecheckerboard="0"
     inkscape:deskcolor="#d1d1d1"
     showgrid="false"
     inkscape:zoom="27.756757"
     inkscape:cx="15.383642"
     inkscape:cy="18.481986"
     inkscape:window-width="2560"
     inkscape:window-height="1369"
     inkscape:window-x="-8"
     inkscape:window-y="-8"
     inkscape:window-maximized="1"
     inkscape:current-layer="svg6" />
  <path
     d="M15.5 31C17.5355 31 19.551 30.5991 21.4316 29.8201C23.3121 29.0412 25.0208 27.8995 26.4602 26.4602C27.8995 25.0208 29.0412 23.3121 29.8201 21.4316C30.5991 19.551 31 17.5355 31 15.5C31 13.4645 30.5991 11.449 29.8201 9.56841C29.0412 7.68786 27.8995 5.97915 26.4602 4.53984C25.0208 3.10054 23.3121 1.95881 21.4316 1.17987C19.551 0.400918 17.5355 -1.32105e-06 15.5 -1.34386e-06L15.5 6.53368C16.6775 6.53368 17.8434 6.7656 18.9313 7.2162C20.0191 7.6668 21.0075 8.32725 21.8401 9.15985C22.6727 9.99245 23.3332 10.9809 23.7838 12.0687C24.2344 13.1566 24.4663 14.3225 24.4663 15.5C24.4663 16.6775 24.2344 17.8434 23.7838 18.9313C23.3332 20.0191 22.6727 21.0075 21.8401 21.8401C21.0075 22.6727 20.0191 23.3332 18.9313 23.7838C17.8434 24.2344 16.6775 24.4663 15.5 24.4663L15.5 31Z"
     fill="#111111"
     id="path2"
     style="fill:#f4f4f4;fill-opacity:1" />
  <path
     d="M16 6C13.8988 6 11.8183 6.40092 9.87706 7.17987C7.93586 7.95882 6.17203 9.10054 4.68629 10.5398C3.20055 11.9792 2.022 13.6879 1.21793 15.5684C0.413852 17.449 -6.67882e-08 19.4645 0 21.5C6.67882e-08 23.5355 0.413852 25.551 1.21793 27.4316C2.022 29.3121 3.20055 31.0208 4.68629 32.4602C6.17203 33.8995 7.93586 35.0412 9.87707 35.8201C11.8183 36.5991 13.8989 37 16 37L16 30.4663C14.7845 30.4663 13.581 30.2344 12.4581 29.7838C11.3351 29.3332 10.3148 28.6727 9.45533 27.8401C8.59587 27.0075 7.91411 26.0191 7.44898 24.9313C6.98384 23.8434 6.74444 22.6775 6.74444 21.5C6.74444 20.3225 6.98384 19.1566 7.44898 18.0687C7.91411 16.9809 8.59587 15.9925 9.45533 15.1599C10.3148 14.3273 11.3351 13.6668 12.458 13.2162C13.581 12.7656 14.7845 12.5337 16 12.5337V6Z"
     fill="#111111"
     id="path4"
     style="fill:#f4f4f4;fill-opacity:1" />
</svg>

<svg width="31" height="37" fill="none" xmlns="http://www.w3.org/2000/svg"><path d="M15.5 31a15.5 15.5 0 1 0 0-31v6.534a8.967 8.967 0 0 1 0 17.932V31Z" fill="#111" style="fill:#f4f4f4;fill-opacity:1"/><path d="M16 6c-2.101 0-4.182.4-6.123 1.18a16.045 16.045 0 0 0-5.19 3.36 15.479 15.479 0 0 0-3.47 5.028A15.08 15.08 0 0 0 0 21.5c0 2.035.414 4.051 1.218 5.932a15.479 15.479 0 0 0 3.468 5.028 16.043 16.043 0 0 0 5.191 3.36A16.448 16.448 0 0 0 16 37v-6.534a9.515 9.515 0 0 1-3.542-.682 9.28 9.28 0 0 1-3.003-1.944 8.953 8.953 0 0 1-2.006-2.909 8.724 8.724 0 0 1-.705-3.431c0-1.177.24-2.343.705-3.431a8.953 8.953 0 0 1 2.006-2.91 9.281 9.281 0 0 1 3.003-1.943A9.516 9.516 0 0 1 16 12.534V6Z" fill="#111" style="fill:#f4f4f4;fill-opacity:1"/></svg>
